src/svg/Chat_16.svg

<svg viewBox="0 0 16 16"><path d="M1 2h14v10H9l-5 3v-3H1V2zm1 1v8h3v2.234L8.723 11H14V3H2z" fill-rule="nonzero"/></svg>

<?xml version="1.0" encoding="UTF-8"?>
<svg width="16px" height="16px" viewBox="0 0 16 16" version="1.1" xmlns="http://www.w3.org/2000/svg" xmlns:xlink="http://www.w3.org/1999/xlink">
    <!-- Generator: Sketch 55.2 (78181) - https://sketchapp.com -->
    <title>Icons/Chat/16</title>
    <desc>Created with Sketch.</desc>
    <g id="Icons/Chat/16" stroke="none" stroke-width="1" fill="none" fill-rule="evenodd">
        <path d="M1,2 L15,2 L15,12 L9,12 L4,15 L4,12 L1,12 L1,2 Z M2,3 L2,11 L5,11 L5,13.2338096 L8.72301604,11 L14,11 L14,3 L2,3 Z" id="Rectangle" fill="#000000" fill-rule="nonzero"></path>
    </g>
</svg>
